gaia/assets/hardware/runtime/usr/share/libcamera/ipa/rpi/pisp/ov9782.json
{
  "version": 2.0,
  "target": "pisp",
  "algorithms": [
    {
      "rpi.black_level": {
        "black_level": 4096
      }
    },
    {
      "rpi.lux": {
        "reference_shutter_speed": 21965,
        "reference_gain": 1.0,
        "reference_aperture": 1.0,
        "reference_lux": 800,
        "reference_Y": 11460
      }
    },
    {
      "rpi.dpc": {
        "strength": 1
      }
    },
    {
      "rpi.noise": {
        "reference_constant": 0,
        "reference_slope": 5.38
      }
    },
    {
      "rpi.geq": {
        "offset": 239,
        "slope": 0.00766
      }
    },
    {
      "rpi.denoise": {
        "normal": {
          "sdn": {
            "deviation": 0.6,
            "strength": 0.82,
            "deviation2": 3.2,
            "deviation_no_tdn": 3.2,
            "strength_no_tdn": 0.82
          },
          "cdn": {
            "deviation": 200,
            "strength": 0.22
          },
          "tdn": {
            "deviation": 1.0,
            "threshold": 0.08
          }
        },
        "hdr": {
          "sdn": {
            "deviation": 0.6,
            "strength": 0.82,
            "deviation2": 3.2,
            "deviation_no_tdn": 3.2,
            "strength_no_tdn": 0.82
          },
          "cdn": {
            "deviation": 200,
            "strength": 0.22
          },
          "tdn": {
            "deviation": 1.0,
            "threshold": 0.08
          }
        },
        "night": {
          "sdn": {
            "deviation": 0.6,
            "strength": 0.82,
            "deviation2": 3.2,
            "deviation_no_tdn": 3.2,
            "strength_no_tdn": 0.82
          },
          "cdn": {
            "deviation": 200,
            "strength": 0.22
          },
          "tdn": {
            "deviation": 1.0,
            "threshold": 0.08
          }
        }
      }
    },
    {
      "rpi.awb": {
        "priors": [
          {
            "lux": 0,
            "prior": [
              2000,
              1.0,
              3000,
              0.0,
              13000,
              0.0
            ]
          },
          {
            "lux": 800,
            "prior": [
              2000,
              0.0,
              6000,
              2.0,
              13000,
              2.0
            ]
          },
          {
            "lux": 1500,
            "prior": [
              2000,
              0.0,
              4000,
              1.0,
              6000,
              6.0,
              6500,
              7.0,
              7000,
              1.0,
              13000,
              1.0
            ]
          }
        ],
        "modes": {
          "auto": {
            "lo": 2500,
            "hi": 7700
          },
          "incandescent": {
            "lo": 2500,
            "hi": 3000
          },
          "tungsten": {
            "lo": 3000,
            "hi": 3500
          },
          "fluorescent": {
            "lo": 4000,
            "hi": 4700
          },
          "indoor": {
            "lo": 3000,
            "hi": 5000
          },
          "daylight": {
            "lo": 5500,
            "hi": 6500
          },
          "cloudy": {
            "lo": 7000,
            "hi": 8000
          }
        },
        "bayes": 1,
        "ct_curve": [
          2860.0,
          0.9514,
          0.4156,
          2960.0,
          0.9289,
          0.4372,
          3603.0,
          0.8305,
          0.5251,
          4650.0,
          0.6756,
          0.6433,
          5858.0,
          0.6193,
          0.6807,
          7580.0,
          0.5019,
          0.7495
        ],
        "sensitivity_r": 1.0,
        "sensitivity_b": 1.0,
        "transverse_pos": 0.03392,
        "transverse_neg": 0.034
      }
    },
    {
      "rpi.agc": {
        "channels": [
          {
            "comment": "Channel 0 is normal AGC",
            "metering_modes": {
              "centre-weighted": {
                "weights": [
                  0,
                  0,
                  1,
                  1,
                  1,
                  1,
                  1,
                  1,
                  1,
                  1,
                  1,
                  1,
                  1,
                  0,
                  0,
                  0,
                  1,
                  1,
                  1,
                  1,
                  1,
                  2,
                  2,
                  2,
                  1,
                  1,
                  1,
                  1,
                  1,
                  0,
                  1,
                  1,
                  1,
                  1,
                  2,
                  2,
                  2,
                  2,
                  2,
                  2,
                  2,
                  1,
                  1,
                  1,
                  1,
                  1,
                  1,
                  2,
                  2,
                  2,
                  2,
                  2,
                  2,
                  2,
                  2,
                  2,
                  2,
                  2,
                  1,
                  1,
                  1,
                  1,
                  2,
                  2,
                  2,
                  2,
                  3,
                  3,
                  3,
                  2,
                  2,
                  2,
                  2,
                  1,
                  1,
                  1,
                  1,
                  2,
                  2,
                  2,
                  3,
                  3,
                  3,
                  3,
                  3,
                  2,
                  2,
                  2,
                  1,
                  1,
                  1,
                  1,
                  2,
                  2,
                  3,
                  3,
                  3,
                  4,
                  3,
                  3,
                  3,
                  2,
                  2,
                  1,
                  1,
                  1,
                  1,
                  2,
                  2,
                  3,
                  3,
                  4,
                  4,
                  4,
                  3,
                  3,
                  2,
                  2,
                  1,
                  1,
                  1,
                  1,
                  2,
                  2,
                  3,
                  3,
                  3,
                  4,
                  3,
                  3,
                  3,
                  2,
                  2,
                  1,
                  1,
                  1,
                  1,
                  2,
                  2,
                  2,
                  3,
                  3,
                  3,
                  3,
                  3,
                  2,
                  2,
                  2,
                  1,
                  1,
                  1,
                  1,
                  2,
                  2,
                  2,
                  2,
                  3,
                  3,
                  3,
                  2,
                  2,
                  2,
                  2,
                  1,
                  1,
                  1,
                  1,
                  2,
                  2,
                  2,
                  2,
                  2,
                  2,
                  2,
                  2,
                  2,
                  2,
                  2,
                  1,
                  1,
                  1,
                  1,
                  1,
                  1,
                  2,
                  2,
                  2,
                  2,
                  2,
                  2,
                  2,
                  1,
                  1,
                  1,
                  1,
                  0,
                  1,
                  1,
                  1,
                  1,
                  1,
                  2,
                  2,
                  2,
                  1,
                  1,
                  1,
                  1,
                  1,
                  0,
                  0,
                  0,
                  1,
                  1,
                  1,
                  1,
                  1,
                  1,
                  1,
                  1,
                  1,
                  1,
                  1,
                  0,
                  0
                ]
              },
              "spot": {
                "weights": [
                  0,
                  0,
                  0,
                  0,
                  0,
                  0,
                  0,
                  0,
                  0,
                  0,
                  0,
                  0,
                  0,
                  0,
                  0,
                  0,
                  0,
                  0,
                  0,
                  0,
                  0,
                  0,
                  0,
                  0,
                  0,
                  0,
                  0,
                  0,
                  0,
                  0,
                  0,
                  0,
                  0,
                  0,
                  0,
                  0,
                  0,
                  0,
                  0,
                  0,
                  0,
                  0,
                  0,
                  0,
                  0,
                  0,
                  0,
                  0,
                  0,
                  0,
                  0,
                  0,
                  0,
                  0,
                  0,
                  0,
                  0,
                  0,
                  0,
                  0,
                  0,
                  0,
                  0,
                  0,
                  0,
                  0,
                  0,
                  0,
                  0,
                  0,
                  0,
                  0,
                  0,
                  0,
                  0,
                  0,
                  0,
                  0,
                  0,
                  0,
                  0,
                  0,
                  1,
                  0,
                  0,
                  0,
                  0,
                  0,
                  0,
                  0,
                  0,
                  0,
                  0,
                  0,
                  0,
                  0,
                  1,
                  2,
                  1,
                  0,
                  0,
                  0,
                  0,
                  0,
                  0,
                  0,
                  0,
                  0,
                  0,
                  0,
                  1,
                  2,
                  3,
                  2,
                  1,
                  0,
                  0,
                  0,
                  0,
                  0,
                  0,
                  0,
                  0,
                  0,
                  0,
                  0,
                  1,
                  2,
                  1,
                  0,
                  0,
                  0,
                  0,
                  0,
                  0,
                  0,
                  0,
                  0,
                  0,
                  0,
                  0,
                  0,
                  1,
                  0,
                  0,
                  0,
                  0,
                  0,
                  0,
                  0,
                  0,
                  0,
                  0,
                  0,
                  0,
                  0,
                  0,
                  0,
                  0,
                  0,
                  0,
                  0,
                  0,
                  0,
                  0,
                  0,
                  0,
                  0,
                  0,
                  0,
                  0,
                  0,
                  0,
                  0,
                  0,
                  0,
                  0,
                  0,
                  0,
                  0,
                  0,
                  0,
                  0,
                  0,
                  0,
                  0,
                  0,
                  0,
                  0,
                  0,
                  0,
                  0,
                  0,
                  0,
                  0,
                  0,
                  0,
                  0,
                  0,
                  0,
                  0,
                  0,
                  0,
                  0,
                  0,
                  0,
                  0,
                  0,
                  0,
                  0,
                  0,
                  0,
                  0,
                  0,
                  0,
                  0,
                  0,
                  0,
                  0,
                  0,
                  0,
                  0,
                  0,
                  0,
                  0
                ]
              },
              "matrix": {
                "weights": [
                  1,
                  1,
                  1,
                  1,
                  1,
                  1,
                  1,
                  1,
                  1,
                  1,
                  1,
                  1,
                  1,
                  1,
                  1,
                  1,
                  1,
                  1,
                  1,
                  1,
                  1,
                  1,
                  1,
                  1,
                  1,
                  1,
                  1,
                  1,
                  1,
                  1,
                  1,
                  1,
                  1,
                  1,
                  1,
                  1,
                  1,
                  1,
                  1,
                  1,
                  1,
                  1,
                  1,
                  1,
                  1,
                  1,
                  1,
                  1,
                  1,
                  1,
                  1,
                  1,
                  1,
                  1,
                  1,
                  1,
                  1,
                  1,
                  1,
                  1,
                  1,
                  1,
                  1,
                  1,
                  1,
                  1,
                  1,
                  1,
                  1,
                  1,
                  1,
                  1,
                  1,
                  1,
                  1,
                  1,
                  1,
                  1,
                  1,
                  1,
                  1,
                  1,
                  1,
                  1,
                  1,
                  1,
                  1,
                  1,
                  1,
                  1,
                  1,
                  1,
                  1,
                  1,
                  1,
                  1,
                  1,
                  1,
                  1,
                  1,
                  1,
                  1,
                  1,
                  1,
                  1,
                  1,
                  1,
                  1,
                  1,
                  1,
                  1,
                  1,
                  1,
                  1,
                  1,
                  1,
                  1,
                  1,
                  1,
                  1,
                  1,
                  1,
                  1,
                  1,
                  1,
                  1,
                  1,
                  1,
                  1,
                  1,
                  1,
                  1,
                  1,
                  1,
                  1,
                  1,
                  1,
                  1,
                  1,
                  1,
                  1,
                  1,
                  1,
                  1,
                  1,
                  1,
                  1,
                  1,
                  1,
                  1,
                  1,
                  1,
                  1,
                  1,
                  1,
                  1,
                  1,
                  1,
                  1,
                  1,
                  1,
                  1,
                  1,
                  1,
                  1,
                  1,
                  1,
                  1,
                  1,
                  1,
                  1,
                  1,
                  1,
                  1,
                  1,
                  1,
                  1,
                  1,
                  1,
                  1,
                  1,
                  1,
                  1,
                  1,
                  1,
                  1,
                  1,
                  1,
                  1,
                  1,
                  1,
                  1,
                  1,
                  1,
                  1,
                  1,
                  1,
                  1,
                  1,
                  1,
                  1,
                  1,
                  1,
                  1,
                  1,
                  1,
                  1,
                  1,
                  1,
                  1,
                  1,
                  1,
                  1,
                  1,
                  1,
                  1,
                  1,
                  1,
                  1,
                  1,
                  1,
                  1,
                  1,
                  1,
                  1
                ]
              }
            },
            "exposure_modes": {
              "normal": {
                "shutter": [
                  100,
                  10000,
                  30000,
                  50000,
                  66666
                ],
                "gain": [
                  1.0,
                  1.5,
                  2.0,
                  4.0,
                  10.0
                ]
              },
              "short": {
                "shutter": [
                  100,
                  5000,
                  10000,
                  20000,
                  60000
                ],
                "gain": [
                  1.0,
                  1.5,
                  2.0,
                  4.0,
                  10.0
                ]
              },
              "long": {
                "shutter": [
                  100,
                  10000,
                  30000,
                  60000,
                  90000,
                  120000
                ],
                "gain": [
                  1.0,
                  1.5,
                  2.0,
                  4.0,
                  8.0,
                  10.0
                ]
              }
            },
            "constraint_modes": {
              "normal": [
                {
                  "bound": "LOWER",
                  "q_lo": 0.98,
                  "q_hi": 1.0,
                  "y_target": [
                    0,
                    0.5,
                    1000,
                    0.5
                  ]
                }
              ],
              "highlight": [
                {
                  "bound": "LOWER",
                  "q_lo": 0.98,
                  "q_hi": 1.0,
                  "y_target": [
                    0,
                    0.5,
                    1000,
                    0.5
                  ]
                },
                {
                  "bound": "UPPER",
                  "q_lo": 0.98,
                  "q_hi": 1.0,
                  "y_target": [
                    0,
                    0.8,
                    1000,
                    0.8
                  ]
                }
              ],
              "shadows": [
                {
                  "bound": "LOWER",
                  "q_lo": 0.0,
                  "q_hi": 0.5,
                  "y_target": [
                    0,
                    0.17,
                    1000,
                    0.17
                  ]
                }
              ]
            },
            "y_target": [
              0,
              0.16,
              1000,
              0.165,
              10000,
              0.17
            ]
          },
          {
            "comment": "Channel 1 is the HDR short channel",
            "desaturate": 0,
            "metering_modes": {
              "centre-weighted": {
                "weights": [
                  0,
                  0,
                  1,
                  1,
                  1,
                  1,
                  1,
                  1,
                  1,
                  1,
                  1,
                  1,
                  1,
                  0,
                  0,
                  0,
                  1,
                  1,
                  1,
                  1,
                  1,
                  2,
                  2,
                  2,
                  1,
                  1,
                  1,
                  1,
                  1,
                  0,
                  1,
                  1,
                  1,
                  1,
                  2,
                  2,
                  2,
                  2,
                  2,
                  2,
                  2,
                  1,
                  1,
                  1,
                  1,
                  1,
                  1,
                  2,
                  2,
                  2,
                  2,
                  2,
                  2,
                  2,
                  2,
                  2,
                  2,
                  2,
                  1,
                  1,
                  1,
                  1,
                  2,
                  2,
                  2,
                  2,
                  3,
                  3,
                  3,
                  2,
                  2,
                  2,
                  2,
                  1,
                  1,
                  1,
                  1,
                  2,
                  2,
                  2,
                  3,
                  3,
                  3,
                  3,
                  3,
                  2,
                  2,
                  2,
                  1,
                  1,
                  1,
                  1,
                  2,
                  2,
                  3,
                  3,
                  3,
                  4,
                  3,
                  3,
                  3,
                  2,
                  2,
                  1,
                  1,
                  1,
                  1,
                  2,
                  2,
                  3,
                  3,
                  4,
                  4,
                  4,
                  3,
                  3,
                  2,
                  2,
                  1,
                  1,
                  1,
                  1,
                  2,
                  2,
                  3,
                  3,
                  3,
                  4,
                  3,
